alura/assets/api/cursos/infraestrutura-codigo-docker-elastic-beanstalk-aws.svg

<svg xmlns="http://www.w3.org/2000/svg" viewBox="0 0 50 50"><g data-name="Layer 1"><path fill="none" stroke="#494949" stroke-miterlimit="10" stroke-width="3.11" d="M-50.54-96.7h425.11v443.81H-50.54z"/><path fill="#dc5e82" d="M48.35 26l.4 4.3-47 17.2.1-9.1.3-5.4 46.8-17.1-.6 3.8V26z"/><path fill="#f56991" d="M48.35 9.1l-.6 7.8-45.9 16.8v-10l.3-4.5 46.3-16.8-.1 6.7z"/><path fill="#444" d="M36.85 49.4H1.75a1.22 1.22 0 01-1.2-1.2V1.8A1.22 1.22 0 011.75.6h46.5a1.22 1.22 0 011.2 1.2V37a1.22 1.22 0 01-1.2 1.2A1.3 1.3 0 0147 37V3.1H3v43.7h33.9a1.22 1.22 0 011.2 1.2c-.05.6-.65 1.4-1.25 1.4z"/><path fill="none" stroke="#494949" stroke-linecap="round" stroke-linejoin="round" d="M24.95 30.6v-4.1m-15.3-1.8h4.1m3.2.1h6.3m3.4 0h6.4m3.4-.1h3.3m-13.1.1A1.7 1.7 0 1025 26.5a1.69 1.69 0 001.65-1.7zm3.4 13.9H20a.43.43 0 01-.4-.4V31a.43.43 0 01.4-.4h10.1a.43.43 0 01.4.4v7.3a.43.43 0 01-.45.4zm-8.2 1.6h6.2M15.25 23v-3.6m19.5 3.7v-3.7M17 24.7a1.7 1.7 0 10-1.7 1.7 1.69 1.69 0 001.7-1.7zm3.35-6.8h-10.1a.43.43 0 01-.4-.4v-7.3a.43.43 0 01.4-.4h10.1a.43.43 0 01.4.4v7.3a.43.43 0 01-.4.4zm-8.2 1.5h6.2m18.1 5.3a1.7 1.7 0 10-1.7 1.7 1.69 1.69 0 001.7-1.7zm3.4-6.8h-10.2a.43.43 0 01-.4-.4v-7.3a.43.43 0 01.4-.4h10.1a.43.43 0 01.4.4v7.3c.1.2-.1.4-.3.4zm-8.2 1.5h6.2"/></g></svg>

<svg xmlns="http://www.w3.org/2000/svg" viewBox="0 0 50 50"><defs><style>.cls-1,.cls-5{fill:none;stroke:#494949;}.cls-1{stroke-miterlimit:10;stroke-width:3.11px;}.cls-2{fill:#dc5e82;}.cls-3{fill:#f56991;}.cls-4{fill:#444;}.cls-5{stroke-linecap:round;stroke-linejoin:round;}</style></defs><g id="Layer_1" data-name="Layer 1"><rect class="cls-1" x="-50.54" y="-96.7" width="425.11" height="443.81"/><polygon class="cls-2" points="48.35 26 48.75 30.3 1.75 47.5 1.85 38.4 2.15 33 48.95 15.9 48.35 19.7 48.35 26"/><polygon class="cls-3" points="48.35 9.1 47.75 16.9 1.85 33.7 1.85 23.7 2.15 19.2 48.45 2.4 48.35 9.1"/><path class="cls-4" d="M36.85,49.4H1.75a1.22,1.22,0,0,1-1.2-1.2V1.8A1.22,1.22,0,0,1,1.75.6h46.5a1.22,1.22,0,0,1,1.2,1.2V37a1.22,1.22,0,0,1-1.2,1.2A1.3,1.3,0,0,1,47,37V3.1H3V46.8h33.9a1.22,1.22,0,0,1,1.2,1.2C38.05,48.6,37.45,49.4,36.85,49.4Z"/><line class="cls-5" x1="24.95" y1="30.6" x2="24.95" y2="26.5"/><line class="cls-5" x1="9.65" y1="24.7" x2="13.75" y2="24.7"/><line class="cls-5" x1="16.95" y1="24.8" x2="23.25" y2="24.8"/><line class="cls-5" x1="26.65" y1="24.8" x2="33.05" y2="24.8"/><line class="cls-5" x1="36.45" y1="24.7" x2="39.75" y2="24.7"/><path class="cls-5" d="M26.65,24.8A1.7,1.7,0,1,0,25,26.5,1.69,1.69,0,0,0,26.65,24.8Z"/><path class="cls-5" d="M30.05,38.7H20a.43.43,0,0,1-.4-.4V31a.43.43,0,0,1,.4-.4h10.1a.43.43,0,0,1,.4.4v7.3A.43.43,0,0,1,30.05,38.7Z"/><line class="cls-5" x1="21.85" y1="40.3" x2="28.05" y2="40.3"/><line class="cls-5" x1="15.25" y1="23" x2="15.25" y2="19.4"/><line class="cls-5" x1="34.75" y1="23.1" x2="34.75" y2="19.4"/><path class="cls-5" d="M17,24.7a1.7,1.7,0,1,0-1.7,1.7A1.69,1.69,0,0,0,17,24.7Z"/><path class="cls-5" d="M20.35,17.9H10.25a.43.43,0,0,1-.4-.4V10.2a.43.43,0,0,1,.4-.4h10.1a.43.43,0,0,1,.4.4v7.3A.43.43,0,0,1,20.35,17.9Z"/><line class="cls-5" x1="12.15" y1="19.4" x2="18.35" y2="19.4"/><path class="cls-5" d="M36.45,24.7a1.7,1.7,0,1,0-1.7,1.7A1.69,1.69,0,0,0,36.45,24.7Z"/><path class="cls-5" d="M39.85,17.9H29.65a.43.43,0,0,1-.4-.4V10.2a.43.43,0,0,1,.4-.4h10.1a.43.43,0,0,1,.4.4v7.3C40.25,17.7,40.05,17.9,39.85,17.9Z"/><line class="cls-5" x1="31.65" y1="19.4" x2="37.85" y2="19.4"/></g></svg>
